X:202
T: WENNS KUMMT UM WEIHNACHTE
N: Z0201
O: Europa, Mitteleuropa, Deutschland, Kuhlaendchen
R: Schiffer -, Handwerker - Lied
M: 3/8
L: 1/16
K: Bb
F2 | Bdf2f2 | fee4 |
d2d3d | dcc3
e | dcB2A2 | B4
F2 | Bdf2d2 | dcc3
F | Bdf2d2 | d2c2
F2 | Bdf2f2 | fee3
e | dcB2A2 | B4

@@@ Tune index: 9960
